img/toolbar/parameter.svg

<svg height="256" width="256" xmlns="http://www.w3.org/2000/svg" xmlns:xlink="http://www.w3.org/1999/xlink">
  <linearGradient id="a">
    <stop offset="0" stop-color="#463221"/>
    <stop offset="1" stop-color="#684d36"/>
  </linearGradient>
  <linearGradient id="b" gradientUnits="userSpaceOnUse" x1="184.83361269215" x2="65.38423711634" xlink:href="#a" y1="200.03552936203" y2="133.81994337705"/>
  <linearGradient id="c" gradientUnits="userSpaceOnUse" x1="113.83019977337" x2="61.32854196558" xlink:href="#a" y1="88.1241058493" y2="72.14103073202"/>
  <linearGradient id="d" gradientUnits="userSpaceOnUse" x1="200.49171247298" x2="136.09153168287" y1="41.98101710715" y2="14.84660601875">
    <stop offset="0" stop-color="#f00" stop-opacity=".708861"/>
    <stop offset="1" stop-color="#036e00" stop-opacity=".4"/>
  </linearGradient>
  <linearGradient id="e" gradientUnits="userSpaceOnUse" x1="79.353722" x2="112.9707" y1="166.54314" y2="167.10027">
    <stop offset="0" stop-color="#fff"/>
    <stop offset="1" stop-color="#fff" stop-opacity="0"/>
  </linearGradient>
  <path d="m4.9869785 90.593387c60.1996175-51.806041 146.2529715-78.234825 211.3741115-8.879561l33.27402-36.309291c-88.18788-71.274283-207.284049-39.3477171-244.6481315 45.188852z" fill="url(#d)"/>
  <path d="m219.37942 203.91065c-15.42703 39.02981-64.06917 56.04173-107.05389 38.64311-42.984718-17.39862-48.649844-136.77308-52.603347-181.906925l72.690277 30.19824c73.12425 2.100546 109.49969 56.058585 86.96696 113.065575z" fill="#6e6257" fill-opacity=".392405"/>
  <path d="m63.726837 136.54674-2.739954-73.522105 62.105637 34.706076z" fill="#a07959" fill-rule="evenodd" stroke="url(#c)" stroke-width="3"/>
  <circle cx="124.8806" cy="165.7861" fill="#a07959" r="68.333122" stroke="url(#b)" stroke-width="4"/>
  <path d="m117.06511 215.85105c-60.40008-10.46038-55.54385-85.55559-9.58574-98.60494" fill="none" stroke="url(#e)" stroke-linecap="round" stroke-opacity=".278481" stroke-width="15"/>
</svg>

<?xml version="1.0" encoding="UTF-8" standalone="no"?>
<!-- Created with Inkscape (http://www.inkscape.org/) -->

<svg
   xmlns:dc="http://purl.org/dc/elements/1.1/"
   xmlns:cc="http://creativecommons.org/ns#"
   xmlns:rdf="http://www.w3.org/1999/02/22-rdf-syntax-ns#"
   xmlns:svg="http://www.w3.org/2000/svg"
   xmlns="http://www.w3.org/2000/svg"
   xmlns:xlink="http://www.w3.org/1999/xlink"
   xmlns:sodipodi="http://sodipodi.sourceforge.net/DTD/sodipodi-0.dtd"
   xmlns:inkscape="http://www.inkscape.org/namespaces/inkscape"
   version="1.1"
   width="256"
   height="256"
   id="svg2428"
   inkscape:version="0.91 r13725"
   sodipodi:docname="parameter.svg">
  <sodipodi:namedview
     pagecolor="#ffffff"
     bordercolor="#666666"
     borderopacity="1"
     objecttolerance="10"
     gridtolerance="10"
     guidetolerance="10"
     inkscape:pageopacity="0"
     inkscape:pageshadow="2"
     inkscape:window-width="1855"
     inkscape:window-height="1056"
     id="namedview4358"
     showgrid="false"
     inkscape:zoom="1.7949219"
     inkscape:cx="106.81285"
     inkscape:cy="128.58641"
     inkscape:window-x="65"
     inkscape:window-y="24"
     inkscape:window-maximized="1"
     inkscape:current-layer="svg2428" />
  <defs
     id="defs2430">
    <linearGradient
       inkscape:collect="always"
       id="linearGradient4196">
      <stop
         style="stop-color:#ffffff;stop-opacity:1"
         offset="0"
         id="stop4198" />
      <stop
         style="stop-color:#ffffff;stop-opacity:0;"
         offset="1"
         id="stop4200" />
    </linearGradient>
    <linearGradient
       inkscape:collect="always"
       id="linearGradient4168">
      <stop
         style="stop-color:#ff0000;stop-opacity:0.70886075"
         offset="0"
         id="stop4170" />
      <stop
         style="stop-color:#036e00;stop-opacity:0.40000001"
         offset="1"
         id="stop4172" />
    </linearGradient>
    <linearGradient
       id="linearGradient4162"
       inkscape:collect="always">
      <stop
         id="stop4164"
         offset="0"
         style="stop-color:#463221;stop-opacity:1" />
      <stop
         id="stop4166"
         offset="1"
         style="stop-color:#684d36;stop-opacity:1" />
    </linearGradient>
    <linearGradient
       x1="47.140759"
       y1="-436.52832"
       x2="457.80655"
       y2="-21.594393"
       id="linearGradient3109"
       xlink:href="#linearGradient3165-3"
       gradientUnits="userSpaceOnUse"
       gradientTransform="matrix(0.51204,0,0,0.51204,-3.0822402,246.79328)" />
    <linearGradient
       id="linearGradient3165-3">
      <stop
         id="stop3167-1"
         style="stop-color:#a4c8f0;stop-opacity:1"
         offset="0" />
      <stop
         id="stop3169-9"
         style="stop-color:#737ba6;stop-opacity:1"
         offset="1" />
    </linearGradient>
    <linearGradient
       x1="47.140759"
       y1="-436.52832"
       x2="457.80655"
       y2="-21.594393"
       id="linearGradient9811"
       xlink:href="#linearGradient3157-2"
       gradientUnits="userSpaceOnUse"
       gradientTransform="matrix(0.51204,0,0,0.51204,56.91776,246.79328)" />
    <linearGradient
       id="linearGradient3157-2">
      <stop
         id="stop3159-6"
         style="stop-color:#fdffff;stop-opacity:1"
         offset="0" />
      <stop
         id="stop3161-8"
         style="stop-color:#cfcfff;stop-opacity:1"
         offset="1" />
    </linearGradient>
    <linearGradient
       x1="-145"
       y1="-184"
       x2="30"
       y2="36"
       id="linearGradient5137"
       xlink:href="#linearGradient3157-2"
       gradientUnits="userSpaceOnUse"
       gradientTransform="translate(185,200)" />
    <linearGradient
       inkscape:collect="always"
       xlink:href="#linearGradient4162"
       id="linearGradient4447"
       x1="179.71999"
       y1="199.67673"
       x2="76.673965"
       y2="142.55418"
       gradientUnits="userSpaceOnUse"
       gradientTransform="matrix(1.1591847,0,0,1.1591847,-23.49505,-31.426681)" />
    <linearGradient
       inkscape:collect="always"
       xlink:href="#linearGradient4162"
       id="linearGradient4455"
       x1="118.4671"
       y1="103.13351"
       x2="73.175217"
       y2="89.345306"
       gradientUnits="userSpaceOnUse"
       gradientTransform="matrix(1.1591847,0,0,1.1591847,-23.49505,-31.426681)" />
    <linearGradient
       inkscape:collect="always"
       xlink:href="#linearGradient4168"
       id="linearGradient4174"
       x1="193.22783"
       y1="59.327003"
       x2="137.67139"
       y2="35.918819"
       gradientUnits="userSpaceOnUse"
       gradientTransform="matrix(1.1591848,0,0,1.1591848,-23.495051,-26.789943)" />
    <linearGradient
       inkscape:collect="always"
       xlink:href="#linearGradient4196"
       id="linearGradient4202"
       x1="79.353722"
       y1="166.54314"
       x2="112.9707"
       y2="167.10027"
       gradientUnits="userSpaceOnUse" />
  </defs>
  <metadata
     id="metadata2433">
    <rdf:RDF>
      <cc:Work
         rdf:about="">
        <dc:format>image/svg+xml</dc:format>
        <dc:type
           rdf:resource="http://purl.org/dc/dcmitype/StillImage" />
        <dc:title />
      </cc:Work>
    </rdf:RDF>
  </metadata>
  <path
     style="fill:url(#linearGradient4174);fill-opacity:1;stroke:none;stroke-width:3;stroke-linecap:butt;stroke-miterlimit:4;stroke-dasharray:none;stroke-opacity:1"
     d="M 4.9869785,90.593387 C 65.186596,38.787346 151.23995,12.358562 216.36109,81.713826 L 249.63511,45.404535 C 161.44723,-25.869748 42.351061,6.0568179 4.9869785,90.593387 Z"
     id="path4366"
     inkscape:connector-curvature="0"
     sodipodi:nodetypes="cccc" />
  <path
     style="fill:#6e6257;fill-opacity:0.39240507;stroke:none;stroke-width:4;stroke-linecap:butt;stroke-miterlimit:4;stroke-dasharray:none;stroke-opacity:1"
     d="M 219.37942,203.91065 C 203.95239,242.94046 155.31025,259.95238 112.32553,242.55376 69.340812,225.15514 63.675686,105.78068 59.722183,60.646835 l 72.690277,30.19824 c 73.12425,2.100546 109.49969,56.058585 86.96696,113.065575 z"
     id="circle4420"
     inkscape:connector-curvature="0"
     sodipodi:nodetypes="ssccs" />
  <path
     style="fill:#a07959;fill-opacity:1;fill-rule:evenodd;stroke:url(#linearGradient4455);stroke-width:2.99999976;stroke-linecap:butt;stroke-linejoin:miter;stroke-miterlimit:4;stroke-dasharray:none;stroke-opacity:1"
     d="M 63.726837,136.54674 60.986883,63.024635 123.09252,97.730711 Z"
     id="path4376"
     inkscape:connector-curvature="0"
     sodipodi:nodetypes="cccc" />
  <circle
     style="fill:#a07959;fill-opacity:1;stroke:url(#linearGradient4447);stroke-width:4;stroke-linecap:butt;stroke-miterlimit:4;stroke-dasharray:none;stroke-opacity:1"
     id="circle4370"
     cx="124.8806"
     cy="165.7861"
     r="68.333122" />
  <path
     style="fill:none;fill-rule:evenodd;stroke:url(#linearGradient4202);stroke-width:15;stroke-linecap:round;stroke-linejoin:miter;stroke-miterlimit:4;stroke-dasharray:none;stroke-opacity:0.27848104"
     d="M 117.06511,215.85105 C 56.66503,205.39067 61.52126,130.29546 107.47937,117.24611"
     id="path4414"
     inkscape:connector-curvature="0"
     sodipodi:nodetypes="cc" />
</svg>
